flaticon/constructions/wheelbarrow.svg

<svg xmlns="http://www.w3.org/2000/svg" width="32" height="32" viewBox="0 0 24 24">
    <path d="M 20.402344 15.539062 C 19.328125 15.539062 18.355469 15.984375 17.679688 16.78125 L 16.359375 16.289062 C 16.667969 16.117188 16.957031 15.910156 17.242188 15.699219 L 22.878906 10.375 C 23.5 10.316406 23.960938 9.820312 23.960938 9.179688 C 23.960938 8.5 23.441406 7.980469 22.761719 7.980469 L 21.484375 7.980469 C 21.328125 7.519531 20.976562 7.136719 20.519531 6.941406 C 20.800781 6.5 20.839844 5.980469 20.601562 5.582031 C 20.359375 5.222656 19.921875 4.941406 19.199219 5.0625 C 19.5625 4.542969 19.640625 3.941406 19.320312 3.542969 C 19.042969 3.183594 18.519531 3.101562 17.960938 3.300781 C 17.960938 3.222656 17.960938 3.140625 17.921875 3.0625 C 17.722656 2.183594 16.921875 1.582031 16 1.582031 C 15.683594 1.582031 15.402344 1.664062 15.121094 1.824219 C 15.082031 1.824219 15.042969 1.78125 15.042969 1.78125 C 14.722656 1.421875 14.242188 1.222656 13.761719 1.222656 C 12.882812 1.222656 12.164062 1.863281 12.003906 2.664062 C 11.761719 2.664062 11.441406 2.742188 11.203125 3.023438 C 10.964844 3.261719 10.882812 3.621094 10.921875 4.0625 C 10.125 3.582031 9.523438 3.820312 9.203125 4.222656 C 8.882812 4.582031 8.84375 5.140625 9.003906 5.621094 C 8.761719 5.621094 8.5625 5.703125 8.363281 5.820312 C 7.84375 6.179688 7.5625 6.980469 7.5625 7.542969 C 7.523438 7.582031 7.402344 7.660156 7.324219 7.699219 C 7.191406 7.78125 7.046875 7.859375 6.925781 7.980469 L 6.363281 7.980469 C 5.683594 7.980469 5.164062 8.5 5.164062 9.179688 C 5.164062 9.734375 5.507812 10.179688 6 10.328125 L 6.164062 11.699219 C 6.203125 12.003906 6.277344 12.296875 6.386719 12.578125 L 1.765625 10.859375 C 1.125 10.621094 0.40625 10.898438 0.125 11.5 C -0.0351562 11.820312 -0.0351562 12.21875 0.0859375 12.539062 C 0.207031 12.859375 0.484375 13.140625 0.804688 13.257812 L 6.765625 15.417969 L 6.765625 21.257812 C 6.765625 22.058594 7.484375 22.777344 8.363281 22.777344 C 8.761719 22.777344 9.164062 22.617188 9.445312 22.335938 L 13.78125 17.960938 L 16.761719 19.042969 C 16.761719 19.085938 16.761719 19.132812 16.761719 19.179688 C 16.761719 21.179688 18.363281 22.777344 20.359375 22.777344 C 22.359375 22.777344 24 21.136719 24 19.136719 C 24 17.140625 22.398438 15.539062 20.402344 15.539062 Z M 19.902344 19.929688 C 20.253906 19.832031 20.570312 19.582031 20.722656 19.21875 C 20.890625 18.796875 20.800781 18.316406 20.511719 17.984375 C 21.117188 18.058594 21.5625 18.5625 21.5625 19.179688 C 21.5625 19.859375 21.039062 20.378906 20.359375 20.378906 C 20 20.378906 19.679688 20.21875 19.480469 19.976562 C 19.625 19.988281 19.769531 19.972656 19.902344 19.929688 Z M 8.363281 7.582031 C 8.363281 7.179688 8.605469 6.660156 8.84375 6.421875 C 8.964844 6.339844 9.003906 6.382812 9.042969 6.382812 C 9.242188 6.460938 9.761719 6.621094 10.003906 6.261719 C 10.203125 5.980469 10.003906 5.660156 9.882812 5.5 C 9.683594 5.300781 9.683594 4.902344 9.84375 4.703125 C 10.042969 4.460938 10.402344 4.621094 10.601562 4.742188 L 10.683594 4.820312 C 10.882812 4.941406 11.203125 5.101562 11.484375 4.941406 C 11.761719 4.742188 11.761719 4.339844 11.722656 3.941406 C 11.722656 3.742188 11.722656 3.582031 11.804688 3.503906 C 11.921875 3.382812 12.164062 3.382812 12.28125 3.382812 C 12.402344 3.382812 12.5625 3.382812 12.683594 3.261719 L 12.800781 3.140625 L 12.800781 2.980469 C 12.800781 2.421875 13.242188 1.980469 13.800781 1.980469 C 14.042969 1.980469 14.320312 2.101562 14.523438 2.300781 C 14.523438 2.300781 15.003906 2.78125 15.402344 2.542969 C 15.601562 2.421875 15.800781 2.382812 16 2.382812 C 16.523438 2.382812 17 2.742188 17.121094 3.222656 C 17.121094 3.261719 17.160156 3.421875 17.160156 3.582031 L 17.320312 3.78125 L 17.519531 3.980469 C 17.640625 4.0625 17.882812 4.183594 18.121094 4.0625 C 18.441406 3.941406 18.640625 3.980469 18.679688 4.023438 C 18.761719 4.101562 18.761719 4.421875 18.519531 4.820312 C 18.242188 5.101562 18.359375 5.703125 18.480469 5.902344 L 18.679688 6.140625 L 18.960938 6.023438 C 19.480469 5.820312 19.839844 5.902344 19.960938 6.0625 C 20.039062 6.222656 19.960938 6.5 19.722656 6.742188 C 19.519531 6.902344 19.519531 7.140625 19.601562 7.339844 L 19.679688 7.582031 L 19.921875 7.582031 C 20.160156 7.621094 20.402344 7.78125 20.5625 7.980469 L 8.242188 7.980469 C 8.324219 7.859375 8.363281 7.742188 8.363281 7.582031 Z M 6.363281 8.78125 L 22.761719 8.78125 C 23 8.78125 23.160156 8.941406 23.160156 9.179688 C 23.160156 9.421875 23 9.582031 22.761719 9.582031 L 6.363281 9.582031 C 6.125 9.582031 5.964844 9.421875 5.964844 9.179688 C 5.964844 8.941406 6.125 8.78125 6.363281 8.78125 Z M 7.445312 12.941406 C 7.164062 12.539062 6.964844 12.101562 6.925781 11.621094 L 6.804688 10.378906 L 21.761719 10.378906 L 16.683594 15.058594 C 16.179688 15.484375 15.714844 15.757812 15.179688 15.851562 L 7.496094 12.992188 C 7.480469 12.976562 7.472656 12.96875 7.445312 12.941406 Z M 0.804688 12.261719 C 0.726562 12.101562 0.765625 11.980469 0.804688 11.859375 C 0.886719 11.699219 1.046875 11.582031 1.246094 11.582031 C 1.324219 11.582031 1.367188 11.582031 1.40625 11.621094 L 19.679688 18.417969 C 19.882812 18.5 20 18.738281 19.921875 18.9375 C 19.902344 18.984375 19.878906 19.023438 19.847656 19.058594 C 19.734375 19.152344 19.578125 19.195312 19.441406 19.136719 L 17.363281 18.378906 C 17.289062 18.355469 17.214844 18.34375 17.140625 18.359375 L 13.964844 17.207031 C 13.925781 17.175781 13.882812 17.152344 13.84375 17.140625 L 12.164062 16.539062 C 12.117188 16.507812 12.0625 16.496094 12.007812 16.5 L 9.035156 15.421875 C 8.992188 15.382812 8.941406 15.351562 8.882812 15.339844 L 7.285156 14.78125 C 7.261719 14.773438 7.238281 14.765625 7.214844 14.761719 L 1.085938 12.539062 C 0.964844 12.5 0.84375 12.378906 0.804688 12.261719 Z M 9.164062 16.289062 L 11.3125 17.066406 L 9.164062 19.21875 Z M 8.882812 21.738281 C 8.722656 21.859375 8.5625 21.9375 8.363281 21.9375 C 7.964844 21.9375 7.5625 21.617188 7.5625 21.21875 L 7.5625 15.710938 L 7.738281 15.773438 L 8.324219 16.019531 L 8.324219 19.898438 C 8.324219 20.097656 8.445312 20.257812 8.644531 20.339844 C 8.84375 20.417969 9.082031 20.378906 9.242188 20.21875 L 12.105469 17.355469 L 12.957031 17.664062 Z M 20.359375 21.976562 C 18.839844 21.976562 17.640625 20.816406 17.5625 19.339844 L 18.410156 19.640625 C 18.628906 20.542969 19.410156 21.179688 20.359375 21.179688 C 21.480469 21.179688 22.359375 20.296875 22.359375 19.179688 C 22.359375 18.058594 21.480469 17.179688 20.359375 17.179688 C 20.042969 17.179688 19.722656 17.253906 19.421875 17.429688 L 18.527344 17.09375 C 19.003906 16.617188 19.683594 16.378906 20.359375 16.378906 C 21.921875 16.378906 23.160156 17.617188 23.160156 19.179688 C 23.160156 20.738281 21.921875 21.976562 20.359375 21.976562 Z M 20.359375 21.976562"/>
</svg>

<svg xmlns="http://www.w3.org/2000/svg" width="32" height="32" viewBox="0 0 24 24">
    <path d="M20.402 15.54c-1.074 0-2.047.444-2.722 1.241l-1.32-.492c.308-.172.597-.379.882-.59l5.637-5.324A1.178 1.178 0 0 0 23.96 9.18c0-.68-.52-1.2-1.2-1.2h-1.277a1.746 1.746 0 0 0-.964-1.039c.28-.441.32-.96.082-1.359-.243-.36-.68-.64-1.403-.52.363-.519.442-1.12.121-1.519-.277-.36-.8-.441-1.36-.242 0-.078 0-.16-.038-.239-.2-.878-1-1.48-1.922-1.48-.316 0-.598.082-.879.242-.039 0-.078-.043-.078-.043-.32-.36-.8-.558-1.281-.558-.88 0-1.598.64-1.758 1.441-.242 0-.563.078-.8.36-.24.238-.321.597-.282 1.038-.797-.48-1.399-.242-1.719.16-.32.36-.36.919-.2 1.4-.241 0-.44.081-.64.198-.52.36-.8 1.16-.8 1.723-.04.039-.16.117-.239.156-.133.082-.277.16-.398.281h-.563c-.68 0-1.199.52-1.199 1.2 0 .554.344 1 .836 1.148l.164 1.371c.04.305.113.598.223.88l-4.621-1.72c-.641-.238-1.36.04-1.641.641-.16.32-.16.719-.04 1.04.122.32.4.6.72.718l5.96 2.16v5.84c0 .8.72 1.52 1.598 1.52.399 0 .801-.16 1.082-.442l4.336-4.375 2.98 1.082v.137c0 2 1.602 3.597 3.598 3.597 2 0 3.641-1.64 3.641-3.64a3.586 3.586 0 0 0-3.598-3.598zm-.5 4.39c.352-.098.668-.348.82-.711a1.21 1.21 0 0 0-.21-1.235 1.19 1.19 0 0 1 1.05 1.196c0 .68-.523 1.199-1.203 1.199-.359 0-.68-.16-.879-.402.145.011.29-.004.422-.047zM8.363 7.582c0-.402.242-.922.48-1.16.122-.082.16-.04.2-.04.2.079.719.24.96-.12.2-.282 0-.602-.12-.762-.2-.2-.2-.598-.04-.797.2-.242.56-.082.759.04l.082.077c.199.121.52.282.8.121.278-.199.278-.601.239-1 0-.199 0-.359.082-.437.117-.121.36-.121.476-.121.121 0 .281 0 .403-.121l.117-.121v-.16c0-.56.441-1 1-1 .242 0 .52.12.722.32 0 0 .48.48.88.242.199-.121.398-.16.597-.16.523 0 1 .36 1.121.84 0 .039.04.199.04.359l.16.2.199.198c.12.083.363.204.601.083.32-.122.52-.083.559-.04.082.079.082.399-.16.797-.278.282-.16.883-.04 1.082l.2.239.28-.118c.52-.203.88-.12 1 .04.08.16 0 .437-.237.68-.203.16-.203.398-.121.597l.078.242h.242c.238.04.48.2.64.398H8.242a.66.66 0 0 0 .121-.398zm-2 1.2h16.399c.238 0 .398.16.398.398 0 .242-.16.402-.398.402H6.363c-.238 0-.398-.16-.398-.402 0-.239.16-.399.398-.399zm1.082 4.16c-.28-.403-.48-.84-.52-1.32l-.12-1.243h14.957l-5.078 4.68c-.504.425-.97.699-1.504.793l-7.684-2.86-.05-.05zm-6.64-.68c-.078-.16-.04-.282 0-.403a.495.495 0 0 1 .441-.277c.078 0 .121 0 .16.04l18.274 6.796c.203.082.32.32.242.52a.42.42 0 0 1-.074.12c-.114.094-.27.137-.407.079l-2.078-.758a.435.435 0 0 0-.222-.02l-3.176-1.152a.374.374 0 0 0-.121-.066l-1.68-.602a.247.247 0 0 0-.156-.039l-2.973-1.078a.323.323 0 0 0-.152-.082l-1.598-.559c-.023-.008-.047-.015-.07-.02l-6.13-2.222a.48.48 0 0 1-.28-.277zm8.36 4.027l2.148.777-2.149 2.153zm-.282 5.45c-.16.12-.32.198-.52.198-.398 0-.8-.32-.8-.718V15.71l.175.062.586.247v3.878c0 .2.121.36.32.442.2.078.438.039.598-.121l2.863-2.864.852.31zm11.476.238a2.774 2.774 0 0 1-2.797-2.637l.848.3c.219.903 1 1.54 1.95 1.54 1.12 0 2-.883 2-2 0-1.121-.88-2-2-2-.317 0-.637.074-.938.25l-.895-.336c.477-.477 1.157-.715 1.832-.715 1.563 0 2.801 1.238 2.801 2.8a2.78 2.78 0 0 1-2.8 2.798zm0 0"/>
</svg>
